X:0734
T:Caledonian Hunt's Delight.
C:Irish.
M:6/8
L:1/8
Q:3/8=80 "Slow"
I: :: :|
Z:Jack Campin * www.campin.me.uk * 2009
K:G
D   |G3  TA3 |B>cB TAGA|B>AG GED|D>EG A>cB/A/|
     G3  TA3 |BcB  TAGA|BAG  GED|DEG  G2    :|
B/c/|d2e  dBG|d2e   dBG|dBG  dBG|e>dB A>cB/A/|
     G3  TA3 |B>cB TAGA|B>AG GED|DEG  G2    :|

